X: 11064
T: MICHAEL KERRY'S REEL
C: Bob McQuillen 16 Feb 99
B: Bob's Note Book 11 #64
R: reel
Z: 2020 John Chambers <jc:trillian.mit.edu>
M: C
L: 1/8
K: G
de \
| gedB cedc | BGAG EGDB, | CEDC B,DGB | dgdB A2Bd |
| gedB cedc | BGAG EGDB, | CEDG Bdge  | dBAB G2  :|
|: FG \
| ABcA FDGA | Bcdc BGBA | GBdB Gceg | fdef d2ef |
| gded BGBd | gece Gceg | dgfd gedc | BGAF G2  :|
%%begintext align
%% When Michael Kerry
%% moved from Seattle, WA to Somerville,
%% MA, the New England dance scene gained
%% an incredibly talented musician - thanks
%% for coming, Michael - we're all glad to have
%% you here!
%%endtext

%%sep 1 1 500

%%sep 1 1 500

